X: 2
T: The Humours Of Whiskey
R: slip jig
M: 9/8
L: 1/8
K: Dmaj
|:gfe fBB fBB|gfe fBB fga|gfe fBB fga|agf efd cde:||:d2e faf ecA|d2e faf gec|d2e faf efg|1 agf efd cde:|2 agf efd cBA|


Tune 46	Setting 12475

